X:1
T:Le Canal en Octobre
M:4/4
R:Reel
L:1/8
K:G
B2 B2 cBAG|B2 B2 cBAG|EFGBA3G|FGEF D2 D2|
B2 B2 cBAG|B2 B2 cBAG|EFGBA3G|G6 A2:|
d2 d2 cBAG|d2 d2 cBAG|EFGBA3G|FGEF D4|
d2 d2 cBAG|d2 d2 cBAG|EFGBA3G|G8:|
